T: Waltz Of The Little Girls, The
M: 3/4
L: 1/8
K: Dmaj
F2 FE DE | F2 dc BA | F2 FE DF | G2 GF GA |B2 BA GF | E2 EF GA |[1 B2 BA Bc | BA :|[2 Bd/B/ Ac Ac | d2 ||c2 cB AF | DF BF AF | E3 A Ec | d2 DF Ad |c2 cB AF | DF BF AF | E3 A Ec | d2 :|
